X: 1834
T: Sûzidilârâ Peşrev
C: III. Selim (İlhâmî)
O: Turkey
F: http://compmusic.upf.edu/node/140
N: suzidilara--pesrev--agirduyek----iii_selim
N: makam= suzidilara
N: form= pesrev
N: usul= agirduyek = 8/4
M: 8/4
L: 1/16
K: C ^9/8f   
Q: 1/4=111
%%MIDI tuningsystem comma53
G6F2 G4 A4 G2A2 G4 A2B2 A4  | B2c2 B4 c2d2 c4 d2e2 d4 e8  | \
w:  SERHANE  |   | 
z4 e8 =f4 e8 d8  | 
w:   | 
c8 B8 d2c2 d2e2 d4 e4  | z4 e8 =f4 e8 d8  | \
w:   |   | 
d2e2 d4 c2d2 c4 B2c2 B4 A4 B4  | 
w:   | 
G8 A6B2 c2d2 c2B2 A2B2 A2G2  | A2G2 F2G2 F4 G2G2 G12 z4  | \
w:   |   | 
G6F2 G4 A4 G2A2 G4 A2B2 A4  | 
w:  SERHANE  | 
B2c2 B4 c2d2 c4 d2e2 d4 e8  | z4 e8 =f4 e8 d8  | \
w:   |   | 
c8 B8 d2c2 d2e2 d4 e4  | 
w:   | 
z4 e8 =f4 e8 d8  | d2e2 d4 c2d2 c4 B2c2 B4 A4 B4  | \
w:   |   | 
G8 A6B2 c2d2 c2B2 A2B2 A2G2  | 
w:   | 
A2G2 F2G2 F4 G2G2 G12 z4  | G6F2 G4 A4 G8 A8  | \
w:   |  MÜLÂZİME  | 
_B2A2 d2^c2 B2A2 G4 A16  | 
w:   | 
z4 A8 _B4 ^c8 d8  | ^c8 _B3A G4 A16  | \
w:   |   | 
z4 A8 _B4 ^c2d2 c4 d8  | d2e2 d4 ^c2d2 c4 _B2c2 B4 A2B2 A4  | 
w:   |   | 
z4 A2_B2 A4 B4 ^c4 d2c2 B3A G4  | \
w:   | 
^c4 d4 c2_B2 A2G2 A16  | z4 A8 _B4 ^c2d2 c4 d8  | 
w:   |   | 
e6d2 ^c4 d4 e8 A8  | z4 e8 =f4 e8 d8  | \
w:   |   | 
d2e2 d4 c2d2 c4 B2c2 B4 A4 B4  | 
w:   | 
G8 A6B2 c2d2 c2B2 A2B2 A2G2  | A2G2 F2G2 F4 G2G2 G12 z4  | \
w:   |   | 
G6F2 G4 A4 G8 A8  | 
w:  MÜLÂZİME  | 
_B2A2 d2^c2 B2A2 G4 A16  | z4 A8 _B4 ^c8 d8  | \
w:   |   | 
^c8 _B3A G4 A16  | z4 A8 _B4 ^c2d2 c4 d8  | 
w:   |   | 
d2e2 d4 ^c2d2 c4 _B2c2 B4 A2B2 A4  | \
w:   | 
z4 A2_B2 A4 B4 ^c4 d2c2 B3A G4  | 
w:   | 
^c4 d4 c2_B2 A2G2 A16  | z4 A8 _B4 ^c2d2 c4 d8  | \
w:   |   | 
e6d2 ^c4 d4 e8 A8  | z4 e8 =f4 e8 d8  | 
w:   |   | 
d2e2 d4 c2d2 c4 B2c2 B4 A4 B4  | G8 A6B2 c2d2 c2B2 A2B2 A2G2  | 
w:   |   | 
A2G2 F2G2 F4 G2G2 G12 z4  | g8 f8 g2f2 g2a2 g2a2 g2f2  | \
w:   |  ORTA HANE  | 
e6d2 e4 f4 g6a2 g4 a4  | 
w:   | 
z4 f2g2 f4 g4 a8 a2_b4c'2  | _b2a6 a2a2 g4 a16  | \
w:   |   | 
z4 a8 _b4 a8 g8  | =f8 e8 f2e2 f2g2 f4 g4  | 
w:   |   | 
z4 e2=f2 e4 f4 g8 a8  | g8 =f4 e4 d4 e4 f8  | \
w:   |   | 
z4 e8 =f4 e8 d8  | _e6d2 c4 B4 c6d2 c4 d4  | 
w:   |   | 
z4 B2c2 B4 c4 d4 e4 =f4 e4  | =f2g2 f2e2 d8 e8 A8  | \
w:   |   | 
z4 e8 =f4 e8 d8  | 
w:   | 
d2e2 d4 c2d2 c4 B2c2 B4 A4 B4  | G8 A6B2 c2d2 c2B2 A2B2 A2G2  | 
w:   |   | 
A2G2 F2G2 F4 G2G2 G12 z4  | B4 c8 _d4 c8 c4 d2e2  | \
w:   |  SON HANE  | 
_d4 c4 {d}c4 _1/4B4 c6d2 c4 B4  | 
w:   | 
z4 c2_d2 c4 d4 e8 c4 d2e2  | _d4 c4 {d}c4 _1/4B4 c6e2 d8  | \
w:   |   | 
z4 _1/4B2c2 B4 c4 d8 e8  | 
w:   | 
d2e2 d4 c2d2 c4 B2c2 B4 A8  | G4 A8 G2F2 G6F2 E4 D4  | \
w:   |   | 
z4 E8 F4 E6F2 E4 F4  | 
w:   | 
z4 E8 F4 G2A2 G4 A2B2 A4  | B2c2 B4 c2d2 c4 d2e2 d4 e8  | \
w:   |   | 
z4 e8 =f4 e8 d8  | 
w:   | 
e2=f2 g4 f4 e4 d4 c4 B4 A4  | z4 e8 =f4 e8 d8  | \
w:   |   | 
d2e2 d4 c2d2 c4 B2c2 B4 A4 B4  | 
w:   | 
G8 A6B2 c2d2 c2B2 A2B2 A2G2  | A2G2 F2G2 F4 G2G2 G12 z4  | \
w:   |   | 
B4 c8 _d4 c8 c4 d2e2  | 
w:  SON HANE  | 
_d4 c4 {d}c4 _1/4B4 c6d2 c4 B4  | \
w:   | 
z4 c2_d2 c4 d4 e8 c4 d2e2  | _d4 c4 {d}c4 _1/4B4 c6e2 d8  | 
w:   |   | 
z4 _1/4B2c2 B4 c4 d8 e8  | d2e2 d4 c2d2 c4 B2c2 B4 A8  | \
w:   |   | 
G4 A8 G2F2 G6F2 E4 D4  | 
w:   | 
z4 E8 F4 E6F2 E4 F4  | z4 E8 F4 G2A2 G4 A2B2 A4  | \
w:   |   | 
B2c2 B4 c2d2 c4 d2e2 d4 e8  | 
w:   | 
z4 e8 =f4 e8 d8  | e2=f2 g4 f4 e4 d4 c4 B4 A4  | \
w:   |   | 
z4 e8 =f4 e8 d8  | d2e2 d4 c2d2 c4 B2c2 B4 A4 B4  | 
w:   |   | 
G8 A6B2 c2d2 c2B2 A2B2 A2G2  | A2G2 F2G2 F4 G2G2 G12 z4  | |


